X: 32870
T: Porthole Of The Kelp
R: reel
M: 4/4
K: Edorian
EF|:G3F GFEF|GGGA FDDF|GFEF GABA|GEFD E2 EF|
GFEF GABc|dBAG FEDF|EFGA Beec|dBAF FEEF:|
|:e2ed edBA|G3A FDDF|Eeed edBA|B/2c/2def e2ef|
gefd edBc|dBAG FEDF|EFGA Beec|dBAF FEEF:|

